X: 0792
T: MISS HAY'S REEL
B: Oliver Ditson "The Boston Collection of Instrumental Music" 1910 p.79 #2
F: http://conquest.imslp.info/files/imglnks/usimg/8/8f/IMSLP175643-PMLP309456-bostoncollection00bost_bw.pdf
%: 2012 John Chambers <jc:trillian.mit.edu>
M: 4/4
L: 1/8
K: D
|:\
d2fd e2ge | fafd cecA | d2fd e2ge | fa Ac d2D2 :|
D2 FD AF dB | AFED E>DEF | D2 FD AF dB | AFGE D2D2 |
D2 F/E/D AF dB | AFED E>DEF | D2 F/E/D AF dB | Agec d2D2 |]

%%sep 1 1 500
%%sep 1 1 500
